X: 20
T: Irish Line Dance
O: Ireland
F: http://www.youtube.com/watch?v=jybBe47Eh6c
N: Medley of The Flowing Bowl/ Maire Breathnach's #1
N: The Doon/ The Mason's Men
T:The Flowing Bowl
M:4/4
L:1/8
F:http://blackrosetheband.googlepages.com/ABCTUNES.ABC May 2009
K:D
Q:1/4=240
|"A"gfed cAAB|(3cBA dc cAAf|gfed cAAA|fage "D"d2 ef|"A"gfed cAAB|(3cBAdc cAAf|gfed cAAA|fage "D"d2 (3ABc|
d2 fd adfd|d2 fa "G"gece|"D"d2 fd adfd|"G"gfge "A"cABc|"D"d2 fd adfd|d2
fa "G"gece|"D"fefd "G"g2 ge|"A"fage "D"d2 ef:|
